imgs/estrela-vazia.svg

<svg width="48" height="48" fill="none" xmlns="http://www.w3.org/2000/svg"><path d="m16.15 37.75 7.85-4.7 7.85 4.75-2.1-8.9 6.9-6-9.1-.8L24 13.7l-3.55 8.35-9.1.8 6.9 6-2.1 8.9ZM11.65 44l3.25-14.05L4 20.5l14.4-1.25L24 6l5.6 13.25L44 20.5l-10.9 9.45L36.35 44 24 36.55 11.65 44Z" fill="url(#a)"/><defs><linearGradient id="a" x1="24" y1="6" x2="24" y2="44" gradientUnits="userSpaceOnUse"><stop stop-color="#FFB845"/><stop offset="1" stop-color="#F2AB38"/></linearGradient></defs></svg>

<svg width="48" height="48" viewBox="0 0 48 48" fill="none" xmlns="http://www.w3.org/2000/svg">
<path d="M16.15 37.75L24 33.05L31.85 37.8L29.75 28.9L36.65 22.9L27.55 22.1L24 13.7L20.45 22.05L11.35 22.85L18.25 28.85L16.15 37.75ZM11.65 44L14.9 29.95L4 20.5L18.4 19.25L24 6L29.6 19.25L44 20.5L33.1 29.95L36.35 44L24 36.55L11.65 44Z" fill="url(#paint0_linear_84_184)"/>
<defs>
<linearGradient id="paint0_linear_84_184" x1="24" y1="6" x2="24" y2="44" gradientUnits="userSpaceOnUse">
<stop stop-color="#FFB845"/>
<stop offset="1" stop-color="#F2AB38"/>
</linearGradient>
</defs>
</svg>
